X: 527
T: New Hessian Camp
N: Pub: J. Walsh, London, 1748
Z: 2012 John Chambers <jc:trillian.mit.edu>
S: 4: ACMV  http://archive.org/details/acompositemusicv01rugg p.2:1
N: The original lacked the final repeat symbol.  Maybe it's a 24-bar dance?
M: 2/4
L: 1/8
K: D
% - - - - - - - - - - - - - - - - - - - - - - - - -
V: 1
|: d2e2 | fdde | f2g2 | affg | afba | geag | fdgf | Tf2e2 :||:
   fdfa | ecea | fdfa | Tf2e2 | d/e/f/g/ aa | d/e/f/g/ aa | bgfe | d4 |]
% - - - - - - - - - - - - - - - - - - - - - - - - -
V: 2 clef=bass middle=d
|: d2a2 | d'2za | d'2e'a | d'2ze | fagf | egfe | dfed | a2A2 :||:
   [a2f2d2]z2 | [a2e2c2]z2 | [a2f2d2]z2 | a2A2 | d2z2 | D2z2 | g2a2 | d4 |]
% - - - - - - - - - - - - - - - - - - - - - - - - -
%%begintext align
%% The two 1st Cu. foot it and change sides, back again, cross over two
%% Cu. lead up to the top, foot it corners, and lead out at the sides.
%% [ACMV]
%%endtext
%%sep 1 8 500

%%sep 1 1 500
%%sep 1 1 500
